src/assets/avatar.svg

<!DOCTYPE svg PUBLIC "-//W3C//DTD SVG 1.1//EN" "http://www.w3.org/Graphics/SVG/1.1/DTD/svg11.dtd">
<!-- Uploaded to: SVG Repo, www.svgrepo.com, Transformed by: SVG Repo Mixer Tools -->
<svg fill="#eeff00" version="1.1" id="Layer_1" xmlns="http://www.w3.org/2000/svg" xmlns:xlink="http://www.w3.org/1999/xlink" width="800px" height="800px" viewBox="0 0 225 256" xml:space="preserve" stroke="#eeff00">
<g id="SVGRepo_bgCarrier" stroke-width="0"/>
<g id="SVGRepo_tracerCarrier" stroke-linecap="round" stroke-linejoin="round"/>
<g id="SVGRepo_iconCarrier"> <path d="M91.6,18.2c12.5,0,22.6,10.1,22.6,22.6s-10.1,22.6-22.6,22.6S69,53.3,69,40.8S79.1,18.2,91.6,18.2z M211.6,119.2l-25.9-67.9 l-0.1,0L199.1,5l-10.4-3l-26.7,91.5l10.4,3l8.2-28.3l17.1,44.1h-25.3v6.9h-25.9c0-0.1,0-0.2,0-0.3c0-6.7-4.9-12.5-11.6-12.5l-41.6,0 c0,0-11.7-32.4-15.9-39.4c-3.3-5.4-8.4-8.8-15.1-8.8c-10.3,0-18.1,8.5-23.7,20.8c-9.3,20.4-13.3,45.5-11,68.6 c1.1,9.4,3.4,17.3,8.9,21.8H18V96.6H2.3V254H18v-68.9h74.6l-10.4,51.6c-1.6,7.8,3.5,15.4,11.3,17c1,0.2,1.9,0.3,2.9,0.3 c6.7,0,12.7-4.7,14.1-11.6l8.8-43.7l11.2,30.1c2.2,5.8,7.7,9.4,13.5,9.4c1.7,0,3.4-0.3,5-0.9c7.5-2.8,11.2-11.1,8.5-18.5l-24.4-65.5 c-2.1-5.6-7.5-9.4-13.5-9.4H81v-9.1h126V254h15.7V119.2H211.6z"/> </g>
</svg>

<svg xmlns="http://www.w3.org/2000/svg" width="221.4" height="253.119" viewBox="0 0 221.4 253.119">
  <g id="SVGRepo_iconCarrier" transform="translate(-1.8 -1.381)">
    <path id="Path_28" data-name="Path 28" d="M91.6,18.2A22.6,22.6,0,1,1,69,40.8,22.577,22.577,0,0,1,91.6,18.2Zm120,101L185.7,51.3h-.1L199.1,5,188.7,2,162,93.5l10.4,3,8.2-28.3,17.1,44.1H172.4v6.9H146.5v-.3c0-6.7-4.9-12.5-11.6-12.5H93.3S81.6,74,77.4,67c-3.3-5.4-8.4-8.8-15.1-8.8C52,58.2,44.2,66.7,38.6,79c-9.3,20.4-13.3,45.5-11,68.6,1.1,9.4,3.4,17.3,8.9,21.8H18V96.6H2.3V254H18V185.1H92.6L82.2,236.7a14.446,14.446,0,0,0,11.3,17,14.347,14.347,0,0,0,17-11.3l8.8-43.7,11.2,30.1a14.507,14.507,0,0,0,13.5,9.4,14.259,14.259,0,0,0,5-.9,14.446,14.446,0,0,0,8.5-18.5l-24.4-65.5a14.5,14.5,0,0,0-13.5-9.4H81v-9.1H207V254h15.7V119.2Z" fill="#ef0" stroke="#ef0" stroke-width="1"/>
  </g>
</svg>
